src/theme/img/warning_to_boaters_icon.svg

<svg width="24" height="28" viewBox="0 0 24 28" xmlns="http://www.w3.org/2000/svg">
  <g fill="none" fill-rule="evenodd">
    <path d="M23 1v22h-7.4142136L12 26.5857864 8.41421356 23H1V1h22Z" stroke="#D72416" stroke-width="2" fill="#FFF"/>
    <path d="m16.0626087 20-1.9478261-1.9478261V16.973913l-5.58260869-5.5826087c-.06956521.0231885-.14202898.0405798-.2173913.052174-.07536232.0115942-.14202899.0173913-.2.0173913v-.9217392c.56811594-.0231884 1.2115942-.1913043 1.93043479-.5043478.7188406-.31304347 1.257971-.66666666 1.6173913-1.06086956l1.0086956-1.09565217c.1391305-.15072464.2985508-.27246377.4782609-.36521739.1797102-.09275362.368116-.13913044.5652174-.13913044.3710145 0 .6898551.13333334.9565217.4.2666667.26666667.4.58550725.4.95652174v4.31304352c0 .347826-.0782608.7014492-.2347826 1.0608695-.1565217.3594203-.3507246.6028986-.5826087.7304348l-1.9826087-1.9826087V9.82608696c-.347826.30144924-.7362318.56811594-1.1652173.80000004-.4289856.231884-.8347827.4173913-1.21739135.5565217l5.00869565 5.0086956h1.0782609l1.9478261 1.9478261L16.0626087 20Zm-9.2-2.5043478L6.08 16.7130435l3.5826087-3.5478261 1.826087 1.8260869H9.38434783L6.8626087 17.4956522Zm6.9391304-10.95652177c-.3478261 0-.6463768-.12463768-.8956521-.37391304-.2492754-.24927536-.3739131-.54782609-.3739131-.89565217 0-.34782609.1246377-.64637681.3739131-.89565218C13.1553623 4.12463768 13.453913 4 13.8017391 4c.3478261 0 .6463768.12463768.8956522.37391304.2492754.24927537.373913.54782609.373913.89565218 0 .34782608-.1246376.64637681-.373913.89565217-.2492754.24927536-.5478261.37391304-.8956522.37391304Z" fill="#D72416" fill-rule="nonzero"/>
  </g>
</svg>

<?xml version="1.0" encoding="UTF-8"?>
<svg width="24px" height="28px" viewBox="0 0 24 28" version="1.1" xmlns="http://www.w3.org/2000/svg" xmlns:xlink="http://www.w3.org/1999/xlink">
    <title>A769ECC0-93D6-47AE-9D10-227053D0F73D</title>
    <g id="Squat-laskuri" stroke="none" stroke-width="1" fill="none" fill-rule="evenodd">
        <g id="colors_and_typography" transform="translate(-674, -1470)">
            <g id="warning_to_boaters_icon" transform="translate(674, 1470)">
                <path d="M23,1 L23,23 L15.5857864,23 L12,26.5857864 L8.41421356,23 L1,23 L1,1 L23,1 Z" id="Combined-Shape" stroke="#D72416" stroke-width="2" fill="#FFFFFF"></path>
                <path d="M16.0626087,20 L14.1147826,18.0521739 L14.1147826,16.973913 L8.53217391,11.3913043 C8.4626087,11.4144928 8.39014493,11.4318841 8.31478261,11.4434783 C8.23942029,11.4550725 8.17275362,11.4608696 8.11478261,11.4608696 L8.11478261,10.5391304 C8.68289855,10.515942 9.32637681,10.3478261 10.0452174,10.0347826 C10.764058,9.72173913 11.3031884,9.36811594 11.6626087,8.97391304 L12.6713043,7.87826087 C12.8104348,7.72753623 12.9698551,7.6057971 13.1495652,7.51304348 C13.3292754,7.42028986 13.5176812,7.37391304 13.7147826,7.37391304 C14.0857971,7.37391304 14.4046377,7.50724638 14.6713043,7.77391304 C14.937971,8.04057971 15.0713043,8.35942029 15.0713043,8.73043478 L15.0713043,13.0434783 C15.0713043,13.3913043 14.9930435,13.7449275 14.8365217,14.1043478 C14.68,14.4637681 14.4857971,14.7072464 14.253913,14.8347826 L12.2713043,12.8521739 L12.2713043,9.82608696 C11.9234783,10.1275362 11.5350725,10.3942029 11.106087,10.626087 C10.6771014,10.857971 10.2713043,11.0434783 9.88869565,11.1826087 L14.8973913,16.1913043 L15.9756522,16.1913043 L17.9234783,18.1391304 L16.0626087,20 Z M6.8626087,17.4956522 L6.08,16.7130435 L9.6626087,13.1652174 L11.4886957,14.9913043 L9.38434783,14.9913043 L6.8626087,17.4956522 Z M13.8017391,6.53913043 C13.453913,6.53913043 13.1553623,6.41449275 12.906087,6.16521739 C12.6568116,5.91594203 12.5321739,5.6173913 12.5321739,5.26956522 C12.5321739,4.92173913 12.6568116,4.62318841 12.906087,4.37391304 C13.1553623,4.12463768 13.453913,4 13.8017391,4 C14.1495652,4 14.4481159,4.12463768 14.6973913,4.37391304 C14.9466667,4.62318841 15.0713043,4.92173913 15.0713043,5.26956522 C15.0713043,5.6173913 14.9466667,5.91594203 14.6973913,6.16521739 C14.4481159,6.41449275 14.1495652,6.53913043 13.8017391,6.53913043 Z" id="Shape" fill="#D72416" fill-rule="nonzero"></path>
            </g>
        </g>
    </g>
</svg>
